apps/scalable/kali-wireshark.svg

<?xml version="1.0" standalone="no"?><!-- Generator: Gravit.io --><svg xmlns="http://www.w3.org/2000/svg" xmlns:xlink="http://www.w3.org/1999/xlink" style="isolation:isolate" viewBox="0 0 256 256" width="256" height="256"><g id="Group" filter="url(#ZPavOHv7170Z3wzjf9LOxCZ5PFXHFyeK)"><linearGradient id="_lgradient_12" x1="0.5330000000000001" y1="0.9999956205466436" x2="0.5330000000000003" y2="0" gradientTransform="matrix(244.648,0,0,228.339,6.343,13.28)" gradientUnits="userSpaceOnUse"><stop offset="0%" stop-opacity="1" style="stop-color:rgb(82,125,151)"/><stop offset="100%" stop-opacity="1" style="stop-color:rgb(82,125,151)"/></linearGradient><path d=" M 166.351 13.28 C 240.407 13.28 250.991 23.837 250.991 97.824 L 250.991 157.075 C 250.991 231.061 240.407 241.619 166.351 241.619 L 90.982 241.619 C 16.926 241.619 6.343 231.061 6.343 157.075 L 6.343 97.824 C 6.343 23.837 16.926 13.28 90.982 13.28 L 166.351 13.28 L 166.351 13.28 Z " id="Path" fill="url(#_lgradient_12)"/></g><defs><filter id="ZPavOHv7170Z3wzjf9LOxCZ5PFXHFyeK" x="-200%" y="-200%" width="400%" height="400%" filterUnits="objectBoundingBox" color-interpolation-filters="sRGB"><feGaussianBlur xmlns="http://www.w3.org/2000/svg" in="SourceGraphic" stdDeviation="4.294"/><feOffset xmlns="http://www.w3.org/2000/svg" dx="0" dy="4" result="pf_100_offsetBlur"/><feFlood xmlns="http://www.w3.org/2000/svg" flood-color="#000000" flood-opacity="0.4"/><feComposite xmlns="http://www.w3.org/2000/svg" in2="pf_100_offsetBlur" operator="in" result="pf_100_dropShadow"/><feBlend xmlns="http://www.w3.org/2000/svg" in="SourceGraphic" in2="pf_100_dropShadow" mode="normal"/></filter></defs><g opacity="0.2"><path d=" M 128 11.947 L 128 240.285 L 165.685 240.285 C 239.74 240.285 250.324 229.728 250.324 155.742 L 250.324 96.491 C 250.324 22.504 239.74 11.947 165.685 11.947 L 128 11.947 L 128 11.947 Z " id="Path" fill="rgb(255,255,255)"/></g><g opacity="0.2"><path d=" M 250.33 147.58 L 250.33 157.58 L 187.29 157.58 C 185.323471 157.584151 183.53789 156.432921 182.73 154.64 C 181.879163 152.753684 181.092051 150.839267 180.37 148.9 C 178.46 143.92 176.78 138.85 175.31 133.73 C 173.18 126.38 171.49 118.92 170.25 111.38 C 168.73 102.38 167.96 93.26 167.93 84.13 C 167.93 78.87 168.22 73.61 168.8 68.38 C 169.4 62.94 170.37 57.54 171.69 52.23 C 173.06 46.71 174.86 41.31 177.06 36.06 C 178.15 33.46 179.35 30.91 180.64 28.41 C 177.28 28.69 173.93 29.1 170.6 29.65 C 164.91 30.59 159.31 31.97 153.85 33.79 C 144.016916 37.0663 134.755453 41.857294 126.4 47.99 C 122.5 50.86 118.81 54 115.35 57.39 C 111.99 60.68 108.83 64.18 105.9 67.87 C 103.04 71.46 100.38 75.21 97.92 79.09 C 95.53 82.86 93.32 86.74 91.3 90.71 C 87.53 98.11 84.32 105.77 81.67 113.64 C 79.44 120.21 77.57 126.9 76.06 133.67 C 75.01 138.35 74.14 143.06 73.46 147.81 C 73.21 149.54 73 151.28 72.85 153.02 C 72.74 154.26 72.17 155.42 71.25 156.27 C 70.32 157.11 69.12 157.58 67.87 157.58 L 6.438 157.438 L 6.438 147.438 L 63.4 147.58 C 64.132523 142.177094 65.100107 136.808669 66.3 131.49 C 67.890276 124.374256 69.856364 117.347745 72.19 110.44 C 75 102.11 78.4 94 82.39 86.17 C 84.55 81.92 86.92 77.78 89.47 73.75 C 92.12 69.56 94.99 65.52 98.07 61.64 C 101.26 57.63 104.7 53.82 108.36 50.24 C 112.15 46.53 116.2 43.09 120.47 39.94 C 129.67 33.19 139.86 27.91 150.69 24.3 C 156.65 22.32 162.77 20.81 168.97 19.78 C 178.92 18.15 189.01 17.61 199.07 18.18 C 193.850251 24.823403 189.548309 32.13906 186.28 39.93 C 184.28 44.7 182.64 49.62 181.4 54.64 C 180.18022 59.521134 179.29153 64.479085 178.74 69.48 C 178.2 74.34 177.93 79.23 177.93 84.11 C 177.96 92.7 178.69 101.27 180.11 109.74 C 181.291965 116.902292 182.898125 123.988092 184.92 130.96 C 186.31 135.83 187.91 140.63 189.72 145.36 C 190 146.11 190.29 146.85 190.59 147.58 L 250.33 147.58 L 250.33 147.58 Z " id="Path" fill="rgb(2,2,2)"/></g><g opacity="0.2"><path d=" M 250.33 150.03 L 250.33 160.03 L 187.29 160.03 C 185.32 160.03 183.53 158.87 182.73 157.08 C 181.880929 155.196303 181.093839 153.285276 180.37 151.35 C 178.465124 146.36537 176.776877 141.30063 175.31 136.17 C 173.18 128.83 171.49 121.37 170.25 113.83 C 168.73 104.82 167.96 95.71 167.93 86.58 C 167.93 81.32 168.22 76.05 168.8 70.82 C 169.4 65.38 170.37 59.99 171.69 54.67 C 173.06 49.16 174.86 43.75 177.06 38.51 C 178.15 35.91 179.35 33.35 180.64 30.85 C 177.28 31.13 173.93 31.55 170.6 32.1 C 164.91 33.03 159.31 34.42 153.85 36.24 C 144.015184 39.512196 134.753105 44.303509 126.4 50.44 C 122.5 53.31 118.81 56.45 115.35 59.83 C 111.99 63.13 108.83 66.63 105.9 70.31 C 103.04 73.91 100.38 77.66 97.92 81.54 C 95.53 85.31 93.32 89.18 91.3 93.15 C 87.53 100.55 84.32 108.21 81.67 116.08 C 79.44 122.66 77.57 129.34 76.06 136.12 C 75.01 140.79 74.14 145.51 73.46 150.25 C 73.21 151.98 73 153.72 72.85 155.46 C 72.625527 158.043898 70.463629 160.027809 67.87 160.03 L 6.313 160.063 L 6.313 150.063 L 63.4 150.03 C 63.45 149.62 63.51 149.22 63.57 148.81 C 64.28 143.82 65.19 138.85 66.3 133.93 C 67.89 126.81 69.86 119.79 72.19 112.88 C 75 104.56 78.4 96.44 82.39 88.61 C 84.55 84.37 86.92 80.22 89.47 76.19 C 92.12 72.01 94.99 67.97 98.07 64.09 C 101.26 60.08 104.7 56.27 108.36 52.69 C 112.15 48.97 116.2 45.53 120.47 42.38 C 129.67 35.63 139.86 30.36 150.69 26.75 C 156.65 24.76 162.77 23.25 168.97 22.23 C 178.92 20.6 189.01 20.06 199.07 20.62 C 193.852225 27.268373 189.550482 34.587055 186.28 42.38 C 184.28 47.15 182.64 52.07 181.4 57.09 C 180.18 61.97 179.29 66.93 178.74 71.93 C 178.2 76.79 177.93 81.67 177.93 86.56 C 177.96 95.14 178.69 103.71 180.11 112.18 C 181.29 119.34 182.9 126.43 184.92 133.41 C 186.31 138.27 187.91 143.08 189.72 147.81 C 190 148.55 190.29 149.29 190.59 150.03 L 250.33 150.03 L 250.33 150.03 Z " id="Path" fill="rgb(255,249,249)"/></g><path d=" M 250.33 148.58 L 250.33 158.58 L 187.29 158.58 C 185.32 158.58 183.53 157.43 182.73 155.63 C 181.877433 153.747812 181.090294 151.836667 180.37 149.9 C 178.46 144.92 176.78 139.85 175.31 134.72 C 173.18 127.38 171.49 119.92 170.25 112.38 C 168.73 103.38 167.96 94.26 167.93 85.13 C 167.93 79.87 168.22 74.61 168.8 69.38 C 169.4 63.94 170.37 58.54 171.69 53.23 C 173.06 47.71 174.86 42.31 177.06 37.06 C 178.15 34.46 179.35 31.91 180.64 29.41 C 177.28 29.69 173.93 30.1 170.6 30.65 C 164.91 31.59 159.31 32.97 153.85 34.79 C 144.016916 38.0663 134.755453 42.857294 126.4 48.99 C 122.5 51.86 118.81 55 115.35 58.39 C 111.99 61.68 108.83 65.18 105.9 68.87 C 103.04 72.46 100.38 76.21 97.92 80.09 C 95.53 83.86 93.32 87.74 91.3 91.71 C 87.53 99.11 84.32 106.77 81.67 114.64 C 79.44 121.21 77.57 127.9 76.06 134.67 C 75.01 139.35 74.14 144.06 73.46 148.81 C 73.21 150.54 73 152.27 72.85 154.02 C 72.74 155.26 72.17 156.42 71.25 157.27 C 70.32 158.11 69.12 158.58 67.87 158.58 L 6.375 158.688 L 6.375 148.688 L 63.4 148.58 C 64.133584 143.173952 65.101159 137.802244 66.3 132.48 C 67.891595 125.367874 69.857666 118.344761 72.19 111.44 C 75 103.11 78.4 95 82.39 87.17 C 84.55 82.92 86.92 78.78 89.47 74.75 C 92.12 70.56 94.99 66.52 98.07 62.64 C 101.26 58.63 104.7 54.82 108.36 51.24 C 112.15 47.53 116.2 44.08 120.47 40.94 C 129.67 34.19 139.86 28.91 150.69 25.3 C 156.65 23.32 162.77 21.81 168.97 20.78 C 178.92 19.15 189.01 18.61 199.07 19.18 C 193.850251 25.823403 189.548309 33.13906 186.28 40.93 C 184.28 45.7 182.64 50.62 181.4 55.64 C 180.18 60.52 179.29 65.48 178.74 70.48 C 178.2 75.34 177.93 80.23 177.93 85.11 C 177.96 93.7 178.69 102.27 180.11 110.74 C 181.291965 117.902292 182.898125 124.988092 184.92 131.96 C 186.31 136.83 187.91 141.63 189.72 146.36 C 190 147.11 190.29 147.85 190.59 148.58 L 250.33 148.58 L 250.33 148.58 Z " id="Path" fill="rgb(236,236,236)"/><g opacity="0.4"><linearGradient id="_lgradient_13" x1="0.5166666666666668" y1="0" x2="0.5166666666666666" y2="1.0000000000000002" gradientTransform="matrix(244.65,0,0,228.34,5.68,12.95)" gradientUnits="userSpaceOnUse"><stop offset="0%" stop-opacity="1" style="stop-color:rgb(255,255,255)"/><stop offset="12.5%" stop-opacity="0.09803922" style="stop-color:rgb(255,255,255)"/><stop offset="92.500001%" stop-opacity="0.09803922" style="stop-color:rgb(0,0,0)"/><stop offset="100%" stop-opacity="0.49803922" style="stop-color:rgb(0,0,0)"/></linearGradient><path d=" M 165.06803 12.951234 C 169.395994 12.941409 173.723944 12.990533 178.051908 13.088781 C 181.927398 13.167379 185.802873 13.31475 189.678362 13.540721 C 193.1309 13.737216 196.583423 14.022134 200.026115 14.395476 C 203.085193 14.729518 206.144271 15.181458 209.173842 15.741469 C 211.888645 16.242533 214.57394 16.881143 217.219897 17.6573 C 219.619947 18.354858 221.970814 19.219439 224.242988 20.241215 C 226.357793 21.184394 228.384061 22.304417 230.302129 23.591462 C 232.141505 24.829383 233.862851 26.244151 235.436659 27.80629 C 237.000621 29.378252 238.417046 31.087764 239.656409 32.924995 C 240.944972 34.840824 242.066305 36.864728 243.020409 38.967229 C 244.043389 41.246576 244.908985 43.584873 245.617197 45.972292 C 246.394255 48.615155 247.033606 51.297317 247.535265 54.008956 C 248.095924 57.034984 248.548399 60.080665 248.882828 63.13617 C 249.256611 66.574836 249.541856 70.013506 249.738578 73.462003 C 249.964823 77.323139 250.112361 81.194101 250.200884 85.055237 C 250.289421 89.378131 250.338591 93.701032 250.32876 98.014106 L 250.32876 156.225886 C 250.338591 160.54878 250.289421 164.861854 250.200884 169.184747 C 250.112361 173.05571 249.964823 176.916853 249.738578 180.777981 C 249.541856 184.226485 249.256611 187.674975 248.882828 191.103826 C 248.548399 194.15933 248.095924 197.214835 247.535265 200.240851 C 247.033606 202.942664 246.394255 205.624837 245.617197 208.267703 C 244.908985 210.655115 244.043389 213.003235 243.020409 215.272755 C 242.066305 217.38509 240.944972 219.399156 239.656409 221.314999 C 238.417046 223.152226 237.000621 224.871561 235.436659 226.433697 C 233.862851 227.995832 232.141505 229.410601 230.302129 230.648532 C 228.384061 231.935575 226.357793 233.055598 224.242988 233.998768 C 221.970814 235.020552 219.619947 235.885137 217.219897 236.592507 C 214.57394 237.368672 211.888645 238.007276 209.173842 238.498515 C 206.144271 239.068354 203.085193 239.510465 200.026115 239.844519 C 196.583423 240.21785 193.1309 240.502777 189.678362 240.699269 C 185.802873 240.925235 181.927398 241.072615 178.051908 241.161035 C 173.723944 241.249454 169.395994 241.298581 165.06803 241.288762 L 90.941963 241.288762 C 86.614006 241.298581 82.286049 241.249454 77.9581 241.161035 C 74.08261 241.072615 70.20712 240.925235 66.331638 240.699269 C 62.879108 240.502777 59.426578 240.21785 55.983886 239.844519 C 52.924808 239.510465 49.865733 239.068354 46.836162 238.498515 C 44.121356 238.007276 41.436057 237.368672 38.7901 236.592507 C 36.390053 235.885137 34.039187 235.020552 31.767009 233.998768 C 29.652213 233.055598 27.625943 231.935575 25.707871 230.648532 C 23.868489 229.410601 22.147143 227.995832 20.573343 226.433697 C 19.009377 224.871561 17.592955 223.152226 16.353586 221.314999 C 15.065036 219.399156 13.943701 217.38509 12.989584 215.272755 C 11.966612 213.003235 11.101021 210.655115 10.392811 208.267703 C 9.615746 205.624837 8.976389 202.942664 8.47474 200.240851 C 7.914072 197.214835 7.461604 194.15933 7.127172 191.103826 C 6.753394 187.674975 6.468142 184.226485 6.271417 180.777981 C 6.045183 176.916853 5.897639 173.05571 5.809112 169.184747 C 5.720586 164.861854 5.671405 160.54878 5.681241 156.225886 L 5.681241 98.014106 C 5.671405 93.701032 5.720586 89.378131 5.809112 85.055237 C 5.897639 81.194101 6.045183 77.323139 6.271417 73.462003 C 6.468142 70.013506 6.753394 66.574836 7.127172 63.13617 C 7.461604 60.080665 7.914072 57.034984 8.47474 54.008956 C 8.976389 51.297317 9.615746 48.615155 10.392811 45.972292 C 11.101021 43.584873 11.966612 41.246576 12.989584 38.967229 C 13.943701 36.864728 15.065036 34.840824 16.353586 32.924995 C 17.592955 31.087764 19.009377 29.378252 20.573343 27.80629 C 22.147143 26.244151 23.868489 24.829383 25.707871 23.591462 C 27.625943 22.304417 29.652213 21.184394 31.767009 20.241215 C 34.039187 19.219439 36.390053 18.354858 38.7901 17.6573 C 41.436057 16.881143 44.121356 16.242533 46.836162 15.741469 C 49.865733 15.181458 52.924808 14.729518 55.983886 14.395476 C 59.426578 14.022134 62.879108 13.737216 66.331638 13.540721 C 70.20712 13.31475 74.08261 13.167379 77.9581 13.088781 C 82.286049 12.990533 86.614006 12.941409 90.941963 12.951234 L 165.06803 12.951234 Z  M 165.077876 16.959741 C 169.376317 16.949916 173.674759 16.99904 177.973216 17.087463 C 181.799522 17.175886 185.625827 17.323257 189.452133 17.539402 C 192.835809 17.735898 196.219486 18.010992 199.583486 18.384332 C 202.554026 18.698726 205.514751 19.131016 208.445953 19.681203 C 211.023049 20.152792 213.580483 20.761928 216.098564 21.498786 C 218.321569 22.147221 220.495374 22.952852 222.600334 23.896029 C 224.508571 24.750785 226.338116 25.762737 228.069293 26.922059 C 229.692286 28.012609 231.207063 29.260355 232.59398 30.645648 C 233.980897 32.030941 235.230091 33.543956 236.331763 35.165043 C 237.492434 36.894202 238.505568 38.711787 239.361333 40.607968 C 240.305606 42.720292 241.112187 44.891565 241.761369 47.102139 C 242.508934 49.617282 243.108947 52.161898 243.590914 54.735987 C 244.131912 57.663768 244.564709 60.6112 244.889308 63.578282 C 245.263091 66.938355 245.538505 70.308252 245.735227 73.687976 C 245.951626 77.509812 246.10901 81.321821 246.187687 85.143656 C 246.276225 89.437084 246.325394 93.720685 246.325394 98.014106 C 246.325394 98.014106 246.325394 98.014106 246.325394 98.014106 L 246.325394 156.225886 C 246.325394 156.225886 246.325394 156.225886 246.325394 156.225886 C 246.325394 160.519306 246.276225 164.802907 246.187687 169.096328 C 246.10901 172.918164 245.951626 176.739999 245.735227 180.552015 C 245.538505 183.931739 245.263091 187.301629 244.889308 190.671533 C 244.564709 193.628784 244.131912 196.576216 243.590914 199.503994 C 243.108947 202.078094 242.508934 204.622706 241.761369 207.137845 C 241.112187 209.358253 240.305606 211.5197 239.361333 213.63202 C 238.505568 215.528209 237.492434 217.355617 236.331763 219.074952 C 235.230091 220.705853 233.980897 222.218876 232.59398 223.604172 C 231.207063 224.979634 229.692286 226.227385 228.069293 227.317935 C 226.338116 228.477251 224.508571 229.489201 222.600334 230.343951 C 220.495374 231.296956 218.321569 232.092775 216.098564 232.741198 C 213.580483 233.478056 211.023049 234.087202 208.445953 234.558787 C 205.514751 235.108972 202.554026 235.541264 199.583486 235.865483 C 196.219486 236.228995 192.835809 236.513922 189.452133 236.70058 C 185.625827 236.916726 181.799522 237.073926 177.973216 237.152526 C 173.674759 237.25078 169.376317 237.290072 165.077876 237.290072 C 165.077876 237.290072 165.077876 237.290072 165.06803 237.290072 L 90.941963 237.290072 C 90.932125 237.290072 90.932125 237.290072 90.932125 237.290072 C 86.633683 237.290072 82.335234 237.25078 78.036784 237.152526 C 74.210479 237.073926 70.384173 236.916726 66.557868 236.70058 C 63.174195 236.513922 59.790522 236.228995 56.426518 235.865483 C 53.455967 235.541264 50.495253 235.108972 47.564048 234.558787 C 44.986944 234.087202 42.429517 233.478056 39.911433 232.741198 C 37.688439 232.092775 35.514626 231.296956 33.409665 230.343951 C 31.501429 229.489201 29.671886 228.477251 27.940703 227.317935 C 26.31772 226.227385 24.802935 224.979634 23.416022 223.604172 C 22.029109 222.218876 20.779904 220.705853 19.678243 219.074952 C 18.517564 217.355617 17.504428 215.528209 16.648674 213.63202 C 15.704392 211.5197 14.897819 209.358253 14.248626 207.137845 C 13.50107 204.622706 12.901057 202.078094 12.419081 199.503994 C 11.878086 196.576216 11.445291 193.628784 11.120694 190.671533 C 10.746916 187.301629 10.471501 183.931739 10.274776 180.552015 C 10.058378 176.739999 9.900997 172.918164 9.822307 169.096328 C 9.733781 164.802907 9.6846 160.519306 9.6846 156.225886 C 9.6846 156.225886 9.6846 156.225886 9.6846 156.225886 L 9.6846 98.014106 C 9.6846 98.014106 9.6846 98.014106 9.6846 98.014106 C 9.6846 93.720685 9.733781 89.437084 9.822307 85.143656 C 9.900997 81.321821 10.058378 77.509812 10.274776 73.687976 C 10.471501 70.308252 10.746916 66.938355 11.120694 63.578282 C 11.445291 60.6112 11.878086 57.663768 12.419081 54.735987 C 12.901057 52.161898 13.50107 49.617282 14.248626 47.102139 C 14.897819 44.891565 15.704392 42.720292 16.648674 40.607968 C 17.504428 38.711787 18.517564 36.894202 19.678243 35.165043 C 20.779904 33.543956 22.029109 32.030941 23.416022 30.645648 C 24.802935 29.260355 26.31772 28.012609 27.940703 26.922059 C 29.671886 25.762737 31.501429 24.750785 33.409665 23.896029 C 35.514626 22.952852 37.688439 22.147221 39.911433 21.498786 C 42.429517 20.761928 44.986944 20.152792 47.564048 19.681203 C 50.495253 19.131016 53.455967 18.698726 56.426518 18.384332 C 59.790522 18.010992 63.174195 17.735898 66.557868 17.539402 C 70.384173 17.323257 74.210479 17.175886 78.036784 17.087463 C 82.335234 16.99904 86.633683 16.949916 90.932125 16.959741 C 90.932125 16.959741 90.932125 16.959741 90.941963 16.959741 L 165.06803 16.959741 C 165.077876 16.959741 165.077876 16.959741 165.077876 16.959741 Z " fill-rule="evenodd" id="highlight" fill="url(#_lgradient_13)"/></g></svg>

<svg xmlns="http://www.w3.org/2000/svg" style="isolation:isolate" width="256" height="256"><defs><filter id="a" width="270.648" height="254.338" x="-6.66" y="4.28" filterUnits="userSpaceOnUse"><feGaussianBlur xmlns="http://www.w3.org/2000/svg" in="SourceGraphic" stdDeviation="4.294"/><feOffset xmlns="http://www.w3.org/2000/svg" dy="4" result="pf_100_offsetBlur"/><feFlood xmlns="http://www.w3.org/2000/svg" flood-opacity=".4"/><feComposite xmlns="http://www.w3.org/2000/svg" in2="pf_100_offsetBlur" operator="in" result="pf_100_dropShadow"/><feBlend xmlns="http://www.w3.org/2000/svg" in="SourceGraphic" in2="pf_100_dropShadow"/></filter></defs><g filter="url(#a)"><linearGradient id="b" x1=".533" x2=".533" y1="1" gradientTransform="matrix(244.648 0 0 228.338 6.343 13.28)" gradientUnits="userSpaceOnUse"><stop offset="0%" stop-color="#527d97"/><stop offset="100%" stop-color="#527d97"/></linearGradient><path fill="url(#b)" d="M166.351 13.28c74.056 0 84.64 10.557 84.64 84.544v59.251c0 73.986-10.584 84.544-84.64 84.544H90.982c-74.056 0-84.639-10.558-84.639-84.544V97.824c0-73.987 10.583-84.544 84.639-84.544h75.369z"/></g><path fill="#FFF" d="M128 11.947v228.338h37.685c74.055 0 84.639-10.557 84.639-84.543V96.491c0-73.987-10.584-84.544-84.639-84.544H128z" opacity=".2"/><g opacity=".4"><linearGradient id="c" x1=".517" x2=".517" y2="1"><stop offset="0%" stop-color="#fff"/><stop offset="12.5%" stop-opacity=".098" stop-color="#fff"/><stop offset="92.5%" stop-opacity=".098"/><stop offset="100%" stop-opacity=".498"/></linearGradient><path fill="none" stroke="url(#c)" stroke-linecap="round" stroke-linejoin="round" stroke-width="4.077" d="M165.685 11.947c74.055 0 84.639 10.557 84.639 84.544v59.251c0 73.986-10.584 84.543-84.639 84.543h-75.37c-74.055 0-84.639-10.557-84.639-84.543V96.491c0-73.987 10.584-84.544 84.639-84.544h75.37z" vector-effect="non-scaling-stroke"/></g><path fill="#020202" d="M250.33 147.58v10h-63.04a4.99 4.99 0 0 1-4.56-2.94 92.23 92.23 0 0 1-2.36-5.74c-1.91-4.98-3.59-10.05-5.06-15.17-2.13-7.35-3.82-14.81-5.06-22.35-1.52-9-2.29-18.12-2.32-27.25 0-5.26.29-10.52.87-15.75.6-5.44 1.57-10.84 2.89-16.15 1.37-5.52 3.17-10.92 5.37-16.17 1.09-2.6 2.29-5.15 3.58-7.65-3.36.28-6.71.69-10.04 1.24-5.69.94-11.29 2.32-16.75 4.14a99.603 99.603 0 0 0-27.45 14.2c-3.9 2.87-7.59 6.01-11.05 9.4-3.36 3.29-6.52 6.79-9.45 10.48-2.86 3.59-5.52 7.34-7.98 11.22-2.39 3.77-4.6 7.65-6.62 11.62-3.77 7.4-6.98 15.06-9.63 22.93-2.23 6.57-4.1 13.26-5.61 20.03-1.05 4.68-1.92 9.39-2.6 14.14-.25 1.73-.46 3.47-.61 5.21-.11 1.24-.68 2.4-1.6 3.25-.93.84-2.13 1.31-3.38 1.31l-61.432-.142v-10l56.962.142a187.706 187.706 0 0 1 2.9-16.09 206.47 206.47 0 0 1 5.89-21.05C75 102.11 78.4 94 82.39 86.17c2.16-4.25 4.53-8.39 7.08-12.42 2.65-4.19 5.52-8.23 8.6-12.11 3.19-4.01 6.63-7.82 10.29-11.4 3.79-3.71 7.84-7.15 12.11-10.3 9.2-6.75 19.39-12.03 30.22-15.64 5.96-1.98 12.08-3.49 18.28-4.52 9.95-1.63 20.04-2.17 30.1-1.6a94.166 94.166 0 0 0-12.79 21.75c-2 4.77-3.64 9.69-4.88 14.71a111.73 111.73 0 0 0-2.66 14.84c-.54 4.86-.81 9.75-.81 14.63.03 8.59.76 17.16 2.18 25.63a183.4 183.4 0 0 0 4.81 21.22c1.39 4.87 2.99 9.67 4.8 14.4.28.75.57 1.49.87 2.22h59.74z" opacity=".2"/><path fill="#FFF9F9" d="M250.33 150.03v10h-63.04c-1.97 0-3.76-1.16-4.56-2.95a94.54 94.54 0 0 1-2.36-5.73 184.94 184.94 0 0 1-5.06-15.18c-2.13-7.34-3.82-14.8-5.06-22.34-1.52-9.01-2.29-18.12-2.32-27.25 0-5.26.29-10.53.87-15.76.6-5.44 1.57-10.83 2.89-16.15 1.37-5.51 3.17-10.92 5.37-16.16 1.09-2.6 2.29-5.16 3.58-7.66-3.36.28-6.71.7-10.04 1.25-5.69.93-11.29 2.32-16.75 4.14a99.332 99.332 0 0 0-27.45 14.2c-3.9 2.87-7.59 6.01-11.05 9.39-3.36 3.3-6.52 6.8-9.45 10.48-2.86 3.6-5.52 7.35-7.98 11.23-2.39 3.77-4.6 7.64-6.62 11.61-3.77 7.4-6.98 15.06-9.63 22.93-2.23 6.58-4.1 13.26-5.61 20.04-1.05 4.67-1.92 9.39-2.6 14.13-.25 1.73-.46 3.47-.61 5.21a5.003 5.003 0 0 1-4.98 4.57l-61.557.033v-10l57.087-.033c.05-.41.11-.81.17-1.22.71-4.99 1.62-9.96 2.73-14.88 1.59-7.12 3.56-14.14 5.89-21.05 2.81-8.32 6.21-16.44 10.2-24.27 2.16-4.24 4.53-8.39 7.08-12.42 2.65-4.18 5.52-8.22 8.6-12.1 3.19-4.01 6.63-7.82 10.29-11.4 3.79-3.72 7.84-7.16 12.11-10.31 9.2-6.75 19.39-12.02 30.22-15.63 5.96-1.99 12.08-3.5 18.28-4.52 9.95-1.63 20.04-2.17 30.1-1.61a94.44 94.44 0 0 0-12.79 21.76c-2 4.77-3.64 9.69-4.88 14.71-1.22 4.88-2.11 9.84-2.66 14.84-.54 4.86-.81 9.74-.81 14.63.03 8.58.76 17.15 2.18 25.62 1.18 7.16 2.79 14.25 4.81 21.23 1.39 4.86 2.99 9.67 4.8 14.4.28.74.57 1.48.87 2.22h59.74z" opacity=".2"/><path fill="#ECECEC" d="M250.33 148.58v10h-63.04c-1.97 0-3.76-1.15-4.56-2.95a89.51 89.51 0 0 1-2.36-5.73c-1.91-4.98-3.59-10.05-5.06-15.18-2.13-7.34-3.82-14.8-5.06-22.34-1.52-9-2.29-18.12-2.32-27.25 0-5.26.29-10.52.87-15.75.6-5.44 1.57-10.84 2.89-16.15 1.37-5.52 3.17-10.92 5.37-16.17 1.09-2.6 2.29-5.15 3.58-7.65-3.36.28-6.71.69-10.04 1.24-5.69.94-11.29 2.32-16.75 4.14a99.603 99.603 0 0 0-27.45 14.2c-3.9 2.87-7.59 6.01-11.05 9.4-3.36 3.29-6.52 6.79-9.45 10.48-2.86 3.59-5.52 7.34-7.98 11.22-2.39 3.77-4.6 7.65-6.62 11.62-3.77 7.4-6.98 15.06-9.63 22.93-2.23 6.57-4.1 13.26-5.61 20.03-1.05 4.68-1.92 9.39-2.6 14.14-.25 1.73-.46 3.46-.61 5.21-.11 1.24-.68 2.4-1.6 3.25-.93.84-2.13 1.31-3.38 1.31l-61.495.108v-10l57.025-.108a188.788 188.788 0 0 1 2.9-16.1 207.01 207.01 0 0 1 5.89-21.04C75 103.11 78.4 95 82.39 87.17c2.16-4.25 4.53-8.39 7.08-12.42 2.65-4.19 5.52-8.23 8.6-12.11 3.19-4.01 6.63-7.82 10.29-11.4 3.79-3.71 7.84-7.16 12.11-10.3 9.2-6.75 19.39-12.03 30.22-15.64 5.96-1.98 12.08-3.49 18.28-4.52 9.95-1.63 20.04-2.17 30.1-1.6a94.166 94.166 0 0 0-12.79 21.75c-2 4.77-3.64 9.69-4.88 14.71-1.22 4.88-2.11 9.84-2.66 14.84-.54 4.86-.81 9.75-.81 14.63.03 8.59.76 17.16 2.18 25.63a183.4 183.4 0 0 0 4.81 21.22c1.39 4.87 2.99 9.67 4.8 14.4.28.75.57 1.49.87 2.22h59.74z"/></svg>
